X:177
T:Jig,A. (p)1665.PLFD.177
M:4/4
L:1/8
Q:1/2=50
S:Playford, Dancing Master,2nd Supp. to 3rd Ed.,1665
O:England
H:166
Z:Chris Partington
K:Bb
BF B>c dd d>e|fgBB (c/B/)(A/G/) FF|
BF B>c ddba|ga (d/=e/)f f>ef2:|
|:aaaa bg g>f|dd d>cd2f2|
(f/g/)(f/d/) f>d cc c>d|(G/F/)(G/A/) BF (D/E/)FB2:|
